svgs/sharp-regular/backward-step.svg

<svg xmlns="http://www.w3.org/2000/svg" viewBox="0 0 320 512"><!--! Font Awesome Pro 6.6.0 by @fontawesome - https://fontawesome.com License - https://fontawesome.com/license (Commercial License) Copyright 2024 Fonticons, Inc. --><path d="M80 88l0-24L32 64l0 24 0 144 0 48 0 144 0 24 48 0 0-24 0-114.4L256 418.4 304 448l0-56.4 0-271.2L304 64 256 93.6 80 202.4 80 88zm4.5 168L256 150.1l0 211.9L84.5 256z"/></svg>

<svg xmlns="http://www.w3.org/2000/svg" viewBox="0 0 320 512"><!--! Font Awesome Pro 6.4.2 by @fontawesome - https://fontawesome.com License - https://fontawesome.com/license (Commercial License) Copyright 2023 Fonticons, Inc. --><path d="M80 88V64H32V88 232v48V424v24H80V424 309.6L256 418.4 304 448V391.6 120.4 64L256 93.6 80 202.4V88zm4.5 168L256 150.1V361.9L84.5 256z"/></svg>
